public/img/binit-strategy/icons/icon-02.svg

<svg fill="none" height="34" viewBox="0 0 47 34" width="47" xmlns="http://www.w3.org/2000/svg" xmlns:xlink="http://www.w3.org/1999/xlink"><clipPath id="a"><path d="m0 0h46.6286v34h-46.6286z"/></clipPath><g clip-path="url(#a)"><g stroke="#fff" stroke-miterlimit="10" stroke-width="2"><path d="m43.5295 1.20862h-40.43063c-1.04254 0-1.88769.83632-1.88769 1.86798v27.8465c0 1.0316.84515 1.868 1.88769 1.868h40.43063c1.0425 0 1.8877-.8364 1.8877-1.868v-27.8465c0-1.03166-.8452-1.86798-1.8877-1.86798z"/><path d="m24.1246 13.1741h-15.43675c-1.04254 0-1.88769.8363-1.88769 1.868v10.5053c0 1.0316.84515 1.868 1.88769 1.868h15.43675c1.0426 0 1.8877-.8364 1.8877-1.868v-10.5053c0-1.0317-.8451-1.868-1.8877-1.868z"/><path d="m37.7245 13.1741h-4.7511c-1.0426 0-1.8877.8363-1.8877 1.868v10.5053c0 1.0316.8451 1.868 1.8877 1.868h4.7511c1.0426 0 1.8877-.8364 1.8877-1.868v-10.5053c0-1.0317-.8451-1.868-1.8877-1.868z"/></g><path d="m42.4071 4.08069h-1.9621c-.0768 0-.1391.06163-.1391.13766v1.94157c0 .07603.0623.13766.1391.13766h1.9621c.0768 0 .1391-.06163.1391-.13766v-1.94157c0-.07603-.0623-.13766-.1391-.13766z" fill="#fff"/><path d="m38.711 4.08069h-1.962c-.0769 0-.1391.06163-.1391.13766v1.94157c0 .07603.0622.13766.1391.13766h1.962c.0769 0 .1391-.06163.1391-.13766v-1.94157c0-.07603-.0622-.13766-.1391-.13766z" fill="#fff"/><path d="m34.9906 4.08069h-1.9621c-.0768 0-.1391.06163-.1391.13766v1.94157c0 .07603.0623.13766.1391.13766h1.9621c.0768 0 .1391-.06163.1391-.13766v-1.94157c0-.07603-.0623-.13766-.1391-.13766z" fill="#fff"/><path d="m1.21118 9.03693h44.20602" stroke="#fff" stroke-miterlimit="10" stroke-width="2"/></g></svg>

<svg width="47" height="34" viewBox="0 0 47 34" fill="none" xmlns="http://www.w3.org/2000/svg">
<g clip-path="url(#clip0_824_25212)">
<path d="M43.5295 1.20862H3.09887C2.05633 1.20862 1.21118 2.04494 1.21118 3.0766V30.9231C1.21118 31.9547 2.05633 32.7911 3.09887 32.7911H43.5295C44.572 32.7911 45.4172 31.9547 45.4172 30.9231V3.0766C45.4172 2.04494 44.572 1.20862 43.5295 1.20862Z" stroke="white" stroke-width="2" stroke-miterlimit="10"/>
<path d="M24.1246 13.1741H8.68785C7.64531 13.1741 6.80016 14.0104 6.80016 15.0421V25.5474C6.80016 26.579 7.64531 27.4154 8.68785 27.4154H24.1246C25.1672 27.4154 26.0123 26.579 26.0123 25.5474V15.0421C26.0123 14.0104 25.1672 13.1741 24.1246 13.1741Z" stroke="white" stroke-width="2" stroke-miterlimit="10"/>
<path d="M37.7245 13.1741H32.9734C31.9308 13.1741 31.0857 14.0104 31.0857 15.0421V25.5474C31.0857 26.579 31.9308 27.4154 32.9734 27.4154L37.7245 27.4154C38.7671 27.4154 39.6122 26.579 39.6122 25.5474V15.0421C39.6122 14.0104 38.7671 13.1741 37.7245 13.1741Z" stroke="white" stroke-width="2" stroke-miterlimit="10"/>
<path d="M42.4071 4.08069H40.445C40.3682 4.08069 40.3059 4.14232 40.3059 4.21835V6.15992C40.3059 6.23595 40.3682 6.29758 40.445 6.29758H42.4071C42.4839 6.29758 42.5462 6.23595 42.5462 6.15992V4.21835C42.5462 4.14232 42.4839 4.08069 42.4071 4.08069Z" fill="white"/>
<path d="M38.711 4.08069H36.749C36.6721 4.08069 36.6099 4.14232 36.6099 4.21835V6.15992C36.6099 6.23595 36.6721 6.29758 36.749 6.29758H38.711C38.7879 6.29758 38.8501 6.23595 38.8501 6.15992V4.21835C38.8501 4.14232 38.7879 4.08069 38.711 4.08069Z" fill="white"/>
<path d="M34.9906 4.08069H33.0285C32.9517 4.08069 32.8894 4.14232 32.8894 4.21835V6.15992C32.8894 6.23595 32.9517 6.29758 33.0285 6.29758H34.9906C35.0674 6.29758 35.1297 6.23595 35.1297 6.15992V4.21835C35.1297 4.14232 35.0674 4.08069 34.9906 4.08069Z" fill="white"/>
<path d="M1.21118 9.03693H45.4172" stroke="white" stroke-width="2" stroke-miterlimit="10"/>
</g>
<defs>
<clipPath id="clip0_824_25212">
<rect width="46.6286" height="34" fill="white"/>
</clipPath>
</defs>
</svg>
